packages/icons/svg/Fill/volume-off.svg

<svg fill="none" height="24" viewBox="0 0 24 24" width="24" xmlns="http://www.w3.org/2000/svg"><path clip-rule="evenodd" d="m15 3.99982v8.17198l-5.97396-5.97398 4.40896-3.023c.305-.21.702-.233 1.031-.06.328.173.534.514.534.885zm6 8.00008c0 1.599-.63 3.121-1.778 4.394l1.415 1.415c1.526-1.654 2.363-3.672 2.363-5.809 0-2.56898-1.194-4.97498-3.362-6.77098-.426-.351-1.056-.292-1.408.133-.353.425-.293 1.056.132 1.409 1.701 1.409 2.638 3.26498 2.638 5.22898zm-4.0894 2.0822 1.438 1.439c1.558-2.038 1.54-5.147-.069-7.14798-.347-.43-.976-.497-1.407-.152-.43.346-.498.975-.152 1.406.963 1.19598 1.018 3.15098.19 4.45498zm-12.16746-6.51091h-2.743c-.552 0-1 .447-1 1v6.85701c0 .553.448 1 1 1h5.023l6.41096 4.397c.17.116.368.175.566.175.16 0 .32-.038.466-.116.328-.172.534-.513.534-.884v-2.172zm-1.45014-4.27827c.391-.391 1.023-.391 1.414 0l16 15.99998c.391.391.391 1.023 0 1.414-.195.195-.451.293-.707.293s-.512-.098-.707-.293l-16-15.99998c-.391-.391-.391-1.023 0-1.414z" fill="#6b7280" fill-rule="evenodd"/></svg>

<svg width="24" height="24" viewBox="0 0 24 24" fill="none" xmlns="http://www.w3.org/2000/svg">
<g id="Icon/Fill/volume-off">
<path id="Mask" fill-rule="evenodd" clip-rule="evenodd" d="M14.9999 3.9999V12.1719L9.0259 6.1979L13.4349 3.1749C13.7399 2.9649 14.1369 2.9419 14.4659 3.1149C14.7939 3.2879 14.9999 3.6289 14.9999 3.9999ZM20.9999 12.0001C20.9999 13.5991 20.3699 15.1211 19.2219 16.3941L20.6369 17.8091C22.1629 16.1551 22.9999 14.1371 22.9999 12.0001C22.9999 9.4311 21.8059 7.0251 19.6379 5.2291C19.2119 4.8781 18.5819 4.9371 18.2299 5.3621C17.8769 5.7871 17.9369 6.4181 18.3619 6.7711C20.0629 8.1801 20.9999 10.0361 20.9999 12.0001ZM16.9105 14.0821L18.3485 15.5211C19.9065 13.4831 19.8885 10.3741 18.2795 8.3731C17.9325 7.9431 17.3035 7.8761 16.8725 8.2211C16.4425 8.5671 16.3745 9.1961 16.7205 9.6271C17.6835 10.8231 17.7385 12.7781 16.9105 14.0821ZM4.743 7.5714H2C1.448 7.5714 1 8.0184 1 8.5714V15.4284C1 15.9814 1.448 16.4284 2 16.4284H7.023L13.434 20.8254C13.604 20.9414 13.802 21.0004 14 21.0004C14.16 21.0004 14.32 20.9624 14.466 20.8844C14.794 20.7124 15 20.3714 15 20.0004V17.8284L4.743 7.5714ZM3.2929 3.293C3.6839 2.902 4.3159 2.902 4.7069 3.293L20.7069 19.293C21.0979 19.684 21.0979 20.316 20.7069 20.707C20.5119 20.902 20.2559 21 19.9999 21C19.7439 21 19.4879 20.902 19.2929 20.707L3.2929 4.707C2.9019 4.316 2.9019 3.684 3.2929 3.293Z" fill="#000000"/>
</g>
</svg>
